X:1
T:Title
%%score { ( 1 2 ) | ( 3 4 ) }
L:1/8
Q:1/4=108
M:3/4
K:Bb
V:1 treble nm="Grand Piano"
V:2 treble 
V:3 bass 
V:4 bass 
V:1
 d2 c2 [DB]2 | [EB]4 [EG]2 | [EG]6 | F6 | B2 c2 d2 | [Ed]4 [Ec]2 | c6- | c4 z2 | d2 e2 [Fd]2 | %9
w: Hubert~P.~Main * *|||||||||
 G2 z2 [DFG]2 | [CEG]6 | [Ec]4 z2 | F2 G2 B2 | c4 z2 | [DB]6- | [DB]4 z2 | [DA]4 [DA]2 | %17
w: ||||||||
 [^Fd]4 [FA]2 | c6 | B4 z2 | d4 d2 | =e4 A2 | [^Fd]6- | [Fd]4 z2 | [F=B]4 [GB]2 | c2 z2 z2 | d6 | %27
w: ||||||||||
 [CEc]4 z2 | [DB]2 G2 B2 | A2 F2 [Ec]2 | [DB]6- | [DB]4 z2 |] %32
w: |||||
V:2
 D4 z2 | x6 | x6 | x6 | x6 | x6 | x6 | x6 | x6 | [=B,F]4 z2 | x6 | x6 | x6 | z2 A,2 [EB]2 | x6 | %15
 x6 | x6 | x6 | x6 | x6 | x6 | x6 | x6 | x6 | x6 | G2- [Gd]2 [Ge]2 | ^F2 G2 =F2 | x6 | x6 | x6 | %30
 x6 | x6 |] %32
V:3
 [B,,F,]4 [B,,_A,]2 | [B,,G,]4 [B,,B,]2 | [C,A,]6 | [F,A,E]6 | [G,B,D]4 [G,B,F]2 | %5
 [C,B,]4 [C,G,]2 | [F,A,F]6- | [F,A,F]4 z2 | F2 z2[K:bass] z2 | z2 _A2 =B,,2 | C,6 | [C,G,]4 z2 | %12
 [F,E]2- [F,B,E]2 [F,DF]2 | B,2 z2 z2 | [B,,F,]6- | [B,,F,]4 z2 | [D,^F,]4 [D,F,]2 | %17
 [D,A,]4 [D,D]2 | [G,EG]6 | [G,DG]4 z2 | [A,DF]4 [A,DF]2 | [A,_DG]4 [A,=EG]2 | [D,D]6- | %23
 [D,D]4 z2 | [G,D]4 [F,D]2 | [E,C]2 [D,=B,]2 [C,C]2 | [D,A,]2 [G,=B,]4 | C,4 z2 | z2 B,2 [F,DF]2 | %29
 [F,E]4 z2 | [B,,F,]6- | [B,,F,]4 z2 |] %32
V:4
 x6 | x6 | x6 | x6 | x6 | x6 | x6 | x6 | B,2- [B,G]2[K:bass] B,2 | D,4 z2 | x6 | x6 | A,2 z2 z2 | %13
 [F,E]4 [B,,G,]2 | x6 | x6 | x6 | x6 | x6 | x6 | x6 | x6 | x6 | x6 | x6 | x6 | x6 | x6 | F,4 z2 | %29
 C2 A,2 [F,,F,]2 | x6 | x6 |] %32

